X:30
T:Goddesses
C:John Playford 1651
S:Colin Hume's website,  colinhume.com  - chords can also be printed below the stave.
Q:1/2=120
M:2/2
L:1/8
P:(AABBCCDD)5AB
K:Cm clef=treble
P:A
[||: "Cm"c2cd e2dc | "Bb"d2de f2ed | "Ab"c2cd e2dc | "G7"g2g2 g4 :|
P:B
[||: "Eb"b2gf e3g | "Bb"f2dc B3d | "Cm"e2dc "G"=Bcd2 | "Cm"e2d2d4 :|
P:C
[||: "Cm"c2cd edec | "Bb"d2de fefd | "Ab"cBcd edef \
|1 "G7"g2g2 g4 :|2 "G7" g2g2g3 c' |]
P:D
[||: "Eb"bagf e2 ag | "Bb"fedc B2AG | "Cm"c'd'e'c' "G"d'e'fd' \
|1 e2c2c3 c' :|2 e2c2c4 |]

